X: 764
T: Paddy From Portlaw.
B:O'Neill's Music of Ireland
N:O'Neill's - 764
Z:Transcribed by Stephen Foy (shf@access.digex.net)
Z:abc 1.6
M:6/8
R:Jig
K:D
d/B/|AFD DFD|AFD D2 d/B/|AFD DFD|GEE E2 d/B/|\
AFD DFD|AFA d2 e|fed BdB|AFD D2:|
||f/g/|afd dfd|afd d2 f/g/|afd dfd|gee e2 f/g/|\
agf bag|agf edc|fdB ABG|FDD D2:|


